src/img/light.svg

<svg width="26" height="35" viewBox="0 0 26 35" fill="none" xmlns="http://www.w3.org/2000/svg">
<path d="M1.09489 21.4325H13.8486L11.6185 32.7078C11.5157 33.224 11.8035 33.7403 12.2864 33.9365C12.42 33.9985 12.5639 34.0191 12.6975 34.0191C13.0572 34.0191 13.4169 33.8333 13.6225 33.5132L25.2252 15.2579C25.441 14.9172 25.4512 14.4938 25.2559 14.1428C25.071 13.7813 24.701 13.5646 24.3002 13.5646H11.5465L13.7766 2.28919C13.8794 1.77293 13.5917 1.25665 13.1087 1.06047C12.6153 0.864344 12.0604 1.03986 11.7726 1.48384L0.169946 19.7391C-0.0458919 20.0799 -0.0561165 20.5032 0.139149 20.8543C0.324128 21.2156 0.694076 21.4325 1.09489 21.4325Z" fill="#2D404E"/>
</svg>

<svg width="26" height="35" fill="none" xmlns="http://www.w3.org/2000/svg"><path d="M1.095 21.433h12.754l-2.23 11.275a1.102 1.102 0 0 0 .667 1.229.975.975 0 0 0 .412.082c.36 0 .719-.186.925-.506l11.602-18.255c.216-.34.226-.764.03-1.115a1.067 1.067 0 0 0-.955-.578H11.546l2.23-11.276a1.1 1.1 0 0 0-2.004-.805L.17 19.739c-.216.34-.226.764-.03 1.115.184.362.554.579.955.579Z" fill="#2D404E"/></svg>
